X:94
T:Macleod's Daughter
T:Nighean Thormaid
R:Slow Air
S:Simon Fraser Collection
N:No.65
O:Scottish
M:C
L:1/8
Q:1/4=100
K:G Minor
A|B>AG>^F d2 =F2|F<B D>=E F3A|B>AG>^F d2 F2|G<B D>^F G3A|
B>AG>^F d3 ^f|g>b=f>g d>fcd|B>ABc d>BA>c|B>GA>^F G2 G||A|
B<G G>^F d3 g/4^f/4g/4a/4|b>ag>=f d2 cB|c>=Bc>e d>_Bc>A|
B>GA^F G2 GA|B<G G>^F d3 g/4^f/4g/4a/4|b>ag>=f d2 cB|c>=Bce dg f/e/d/c/|
B>GA>^F G3||A|B>AG>^F d2 =F2|F<B D>=E F3A|B>AG>^F d2F2|
G<B D>^F G3A|B>AG>^F d3^f|g>b=f>g d>fcd|B>AB>c d>BA>c|B>GA>^F G2G||
b/a/|g>fd>e f<b d>e|f>d B/c/d/e/ (f2 f)b/a/|g>fd>e f<b d>c|
B>d c/=B/c/d/ e3/2(3g/4f/4e/4 d>e|d>cB>c d<f F2|F<B D>=E F3A|
G>AB>c d>Bc>A|B>GA>^F G2G||

